X:13501
T:Poor Soldier. JC.251
T:Deadly Wars,aka JC.251
M:C|
L:1/8
Q:120
S:John Clare,Poet,Helpstone (1793-1864)
R:Air
O:England
A:Northamptonshire
N:
Z:P Headford
K:G
GA|B2D2D2GF|EDEGA2GA|B2D2cBAG|E3FG2:|!
|:D2|GABcd2d2|edcBA2D2|GABc dedc|B3cd2D2|!
GABcd2d2|edcBA2GA|B2D2cBAG|E3FG2:|]
